X: 22878
T: Lark On The Strand, The
R: jig
M: 6/8
K: Adorian
A3 AGA|BGE G3|ABA GBd|edg edB|
A3 AGA|BGE G3|ABA g2d|edg edB|
ADD AGA|BGE D3|ABA GBd|ed(g g)dB|
A3 AGA|BGE G3|ABA g2d|edg edB|
GB/c/d g3|gba g3|GB/c/d g2d|edg edB|
GB/c/d g3|gba g3|a3 age|edg edB|
GB/c/d g3|gba gfg|GB/c/d g2d|edg edB|
GB/c/d g3|gba g3|a3 age|edg edB|

